X: 15
M:6/8
L:1/8
K:G
u(d/c/)|\
|:ug/a/|\
bgg dgg | bgb bag | aff dff | fdf agf |
egg dgg | cgg Bgg | dcB Adc | BGG G2 :|


